X:1
T:Gud signe vaart dyre Fedraland
T:Gud signe vaart dyre Fedraland
T:Tekst af Blix
T:Karl Svensen
C:Karl Svensen
%%score [ 1 2 3 4 ]
L:1/8
Q:1/4=90
M:4/4
K:Eb
V:1 treble nm="S"
V:2 treble nm="A"
V:3 treble-8 nm="T"
V:4 bass nm="B"
V:1
 C2 | C2 E F G2 c2 | B3 A G2 B2 | A2 G F E2 C2 | G4 G2 F2 | E2 G A B2 e2 | d3 c B2 c2 | %7
w: 1.Gud|sig- ne vaart dy- re|Fe- dra- land og|lat det som Ha- gen|blø- ma! Lat|ly- sa din Fred fraa|Fjell til Strand og|
 d2 G =A B2 c2 | =A4 G2 G2 | _A2 B c c2 B2 | B2 A2 G2 F2 | E2 G c =B2 c2 | d4 !fermata!c2 z2 |] %13
w: Vet- ter fyr Vaar- sol|rø- ma! Lat|Fol- ket som Brø- der|sa- man bu, som|Krist- ne det kann seg|sø- ma!|
V:2
 C2 | C2 E F G2 A2 | G3 F E2 E2 | E2 D D C2 C2 | D4 D2 D2 | E2 E E F2 E2 | F3 F F2 E2 | %7
w: 1.Gud|sig- ne vaart dy- re|Fe- dra- land og|lat det som Ha- gen|blø- ma! Lat|ly- sa din Fred fraa|Fjell til Strand og|
 D2 G G G2 G2 | (G2 ^F2) D2 E2 | F2 F F F2 F2 | E2 E2 D2 D2 | E2 E E G2 G2 | %12
w: Vet- ter fyr Vaar- sol|rø- * ma! Lat|Fol- ket som Brø- der|sa- man bu, som|Krist- ne det kann seg|
 (A2 G2) !fermata!E2 z2 |] %13
w: sø- * ma!|
V:3
 C2 | C2 E F G2 c2 | B3 A G2 G2 | A2 D G G2 c2 | c2 (=A2 =B2) B2 | c2 c c d2 _B2 | B3 =A B2 A2 | %7
w: 1.Gud|sig- ne vaart dy- re|Fe- dra- land og|lat det som Ha- gen|blø- * ma! Lat|ly- sa din Fred fraa|Fjell til Strand og|
 B2 B c d2 e2 | c4 B2 B2 | c2 B A A2 B2 | c2 c2 =B2 B2 | c2 c c d2 c2 | (c2 =B2) !fermata!c2 z2 |] %13
w: Vet- ter fyr Vaar- sol|rø- ma! Lat|Fol- ket som Brø- der|sa- man bu, som|Krist- ne det kann seg|sø- * ma!|
V:4
 C,2 | C,2 E, F, G,2 A,2 | G,3 F, E,2 D,2 | C,2 =B,, B,, C,2 A,2 | G,4 G,2 G,2 | C2 B, A, A,2 G,2 | %6
w: 1.Gud|sig- ne vaart dy- re|Fe- dra- land og|lat det som Ha- gen|blø- ma! Lat|ly- sa din Fred fraa|
 F,3 E, D,2 C,2 | B,,2 E, E, D,2 C,2 | D,4 G,2 E,2 | E,2 E, E, D,2 D,2 | C,2 F,2 G,2 G,2 | %11
w: Fjell til Strand og|Vet- ter fyr Vaar- sol|rø- ma! Lat|Fol- ket som Brø- der|sa- man bu, som|
 C2 B, A, G,2 E,2 | (F,2 G,2) !fermata!C,2 z2 |] %13
w: Krist- ne det kann seg|sø- * ma!|

